!!!OTL: 19e. Die schwarzbraune Hexe.
!!!ARE: Europa, Mitteleuropa, Deutschland, Bayern; Wuerttemberg; Thueringen
!!!SCT: E0019D
!!!TXL: @@DE
!!!YEM: Copyright 1995, estate of Helmut Schaffrath.
**kern	**text
*ICvox	*
*M2/4	*
*k[b-e-a-]	*
*E-:	*
!LO:TX:a:t=Mäßig.	!
!LO:TX:a:t=Mel. aus Würtemberg, Baiern u. Thüringen.	!
{16e-L	Es
16gJ	.
=1	=1
8.b-L	blies
16cc	.
8b-J	.
8a-	ein
=2	=2
8.gL	Jä-
16fJ	.
8e-}	-ger
{8b-	wol
=3	=3
8cc	in
8b-	ſein
8a-	Jä-
8g	-ger-
=4	=4
4f	-horn,
8r}	.
{16e-L	und
16gJ	.
=5	=5
8b-	al-
8b-	-les
8b-	was
8ee-	er
=6	=6
8.ccL	blies,
16b-	.
8cc}J	.
{8a-	das
=7	=7
4g	war
4f	ver-
=8	=8
4e-	-lorn.
8r}	.
=||	=||
{16dL	Drum
16e-J	.
=9	=9
8fL	hei-
16f	-ſa-
16gJ	.
8fL	-ſa-
16f	-
16gJ	ſa-
=10	=10
4f	-ſa,
8r}	.
{8f	drum
=11	=11
8g	tra-
8b-	-ri-
8g	-ra-
8ee-	-ri-
=12	=12
4b-	-ra
8r}	-
{16e-L	und
16gJ	.
=13	=13
8b-	al-
8b-	-les
8b-	was
8ee-	er
=14	=14
8.ccL	blies,
16b-	.
8cc}J	.
{8a-	das
=15	=15
4g	war
4f	ver-
=16	=16
4e-	-lorn.
8r}	.
==	==
!!!AGN: Sage, Maerchen -, Zauber - Lied, Ballade ?
!!!ONB: ESAC (Essen Associative Code) Database: ERK1
!!!AMT: simple duple
!!!AIN: vox
!!!EED: Helmut Schaffrath
!!!EEV: 1.0
!!!GTL: Nachtklaenge der Goettersage (Zaubermaeren)
!!!URL-scan: https://rosdok.uni-rostock.de/mcrviewer/recordIdentifier/rosdok_ppn745146120/iview2/phys_0118.iview2?x=-4.404412318552431&y=534.7487235859153&scale=0.645690413860662&rotation=0&layout=singlePageLayout&logicalDiv=log_0009
!!!ENC: Anna Maria Matuszewska
!!!EEV: 2024/22/11
*-	*-
